X: 100323
M: C
L: 1/8
K: A
uc) |\
cAec B2(A :| ud) | ce{ef}e2 cf{fg}f2 | ec(c{dc}B) (AF)Fd |
ce{ef}e2 (ce)fg | (ag)fe (f{gf}^e)fg | (ag)fe (fg)af |
(ec)dB (cA)FA | GAEA CEA,e | cAec {Bc}B2("_Fine"A "^D.C."|]


